X:2503
T:The Bramble Bush
P:Dinnet House
C:Trad.
R:Jig (8x32)
B:RSCDS 25-3
Z:Anselm Lingnau <anselm@strathspey.org>
M:6/8
L:1/8
K:D
F|"D"A2B AFD|"Em"EFD "A"CB,A,|"D"A2B DFG|"Bm"ABc "Em"dcB|
  "D"A2B "Bm"AFD|"E"EGD "A7"CB,A,|"G"B,CD "A7"CB,A,|"D"D3 D2||
A|"D"dfa afd|"Em"efd "A7"cBA|"D"dfa afd|abc' "G"d'c'b|
  "D"d'c'b "Bm"agf|"E"efd "A7"cBA|"A"Bcd cBA|"D"d3 d2|]

